src/topics/icons/progress.svg

<svg height="277" preserveAspectRatio="xMidYMid" viewBox="0 0 256 277" width="256" xmlns="http://www.w3.org/2000/svg"><path d="m63.0169512 260.486819-60.24816571-36.995134 60.24816571-35.870825zm30.8292782 16.292071v-104.024484l-93.8462294-56.848886 65.3199394-38.5311812 91.5410746 55.9519982v104.529946zm90.9322886-12.793175v-144.75634l-127.2623073-77.3682848 70.7231873-41.8610902 127.760602 74.0487631v147.1214709z" fill="#5ce500"/></svg>

<?xml version="1.0" encoding="UTF-8"?>
<svg width="256px" height="277px" viewBox="0 0 256 277" version="1.1" xmlns="http://www.w3.org/2000/svg" xmlns:xlink="http://www.w3.org/1999/xlink" preserveAspectRatio="xMidYMid">
    <g>
        <path d="M63.0169512,260.486819 L2.76878549,223.491685 L63.0169512,187.62086 L63.0169512,260.486819 Z M93.8462294,276.77889 L93.8462294,172.754406 L0,115.90552 L65.3199394,77.3743388 L156.861014,133.326337 L156.861014,237.856283 L93.8462294,276.77889 Z M184.778518,263.985715 L184.778518,119.229375 L57.5162107,41.8610902 L128.239398,0 L256,74.0487631 L256,221.170234 L184.778518,263.985715 Z" fill="#5CE500"></path>
    </g>
</svg>
